X:2909
T:Chavouisses - bourree
C:Philippe Prieur
Z:abc transcription Simon Wascher
N:please mail errors to: simon.wascher@chello.at
M:2/4
L:1/8
K:Gmixo
BB2A|G3/2A/2 Bc|AA2G|F4|
BB2A|G3/2A/2 Bc|AF AF|G4:|
|:d3/2c/2 BG|F3/2G/2 AB|c3/2B/2 Ac|B/2c/2B/2A/2 G2|
d3/2c/2 BG|F3/2G/2 AB|cB AF|G4:|
